X:3484
L:1/8
M:4/4
K:C
 BEA |[M:2/2][K:D]SOSOO .!fermata!PMTuCO Md2 dB AFAB | d2 dB gfec | d2 (dB) ADFA | gfed cABc | 
 d2 (dB) AFAB | d2 dB gfec | d2 (dB) ADFA | gfed cdef || d2 (ad) fdad | d2 (ad) gfec | 
 d2 (ad) fdad | cBAB cdef | d2 (ad) fdad | d2 (ad) cdef | gbaf gefd | edcB ABcA |]

